X: 2030
T: Yıllar Ne Çabuk Geçti
C: Bîmen Şen
O: Turkey
F: http://compmusic.upf.edu/node/140
N: hicaz--sarki--senginsemai--yillar_ne_cabuk--bimen_sen
N: makam= hicaz
N: form= sarki
N: usul= senginsemai = 6/4
M: 6/4
L: 1/16
K: C _7/8B ^f ^c 
Q: 1/4=78
%%MIDI tuningsystem comma53
A4 g4 f3e d2e2 e8  | a3g =f3e d3c B3A A8  | \
w:  ARANAĞME  |   | 
A4 =b3a a3g g3f e8  | 
w:   | 
f2ef g2a2 ag2f gffe e8  | a3g g3f f3e d4 g8  | 
w:   |   | 
g3=f f3e e3d d3c c8  | e3d d3c c3B B3A dcBA G4  | 
w:   |   | 
ABAB ABAB G4 B3A A8  | A4 g4 f3e d2e2 e8  | \
w:   |  ARANAĞME  | 
a3g =f3e d3c B3A A8  | 
w:   | 
A4 =b3a a3g g3f e8  | f2ef g2a2 ag2f gffe e8  | 
w:   |   | 
a3g g3f f3e d4 g8  | g3=f f3e e3d d3c c8  | \
w:   |   | 
e3d d3c c3B B3A dcBA G4  | 
w:   | 
ABAB ABAB G4 B3A A8  | A4 g4 f3e d2=fe e6a2  | 
w:   |  Yıl lar  ne  *  ça *  *  buk   | 
g2=f2 e2d2 c3B cBBA A8  | fga4ag g3f f3e e2d2 g2fe  | 
w:  geç *  *  *  ti  *  o  *  *  *  gün  |  ler  *  *  *  *  a *  ra *  sın  | 
e8 e=fed edcd e3d cBA2  | A4 g4 f3e d2=fe e6a2  | 
w:  dan   SAZ  |  Yıl lar  ne  *  ça *  *  buk   | 
g2=f2 e2d2 c3B cBBA A8  | fga4ag g3f f3e e2d2 g2fe  | 
w:  geç *  *  *  ti  *  o  *  *  *  gün  |  ler  *  *  *  *  a *  ra *  sın  | 
e8 e=fed edcd e2de ^fga2  | =b3a a3g g3f gffe e8  | 
w:  dan   SAZ  |  Bir  *  tel  *  saç  *  o *  *  *  nun   | 
e2a2 g2=f2 e3d eddc c8  | g6g=f f3e e3d d3c BABc  | 
w:  kal *  *  *  dı  *  bü *  *  *  tün   |  ha *  *  tı *  ra *  sın  | 
B2c6 cdcB cBAB c3d efg2  | g2fg e4 e2de c2BA A8  | 
w:  dan   SAZ  |  Bir  *  *  tel  saç  *  *  o *  *  nun   | 
A2B6 B3A AGGF G8  | e8 c4 A4 B3A G2BA  | \
w:  kal *  dı  *  bü *  *  *  tün   |  ha tı ra sın  | 
A8 a3^g =fefg a8  | 
w:  dan   SAZ  | 
a4 a4 =b2=c'b baa^g a8  | a2d'2 =c'2=b2 a3^g =f3e d8  | \
w:  Hâ lâ  du *  *  ya *  *  *  rım   |  bin  *  *  *  sı *  zı  *  ben   | 
a8 =b4 =c'4 b2a2 c'ba^g  | 
w:  her  ya ra sın  | 
a8 a3g agf^e f8  | f4 f4 a2ga agf^e f8  | \
w:  dan SAZ  |  Hâ lâ  du *  *  ya *  *  *  rım   | 
a3g =b3a =c'3b a2g2 f2gf e4  | 
w:  bin  *  *  *  sı *  zı  *  ben   | 
agfe d4 a3g g3f f2e2 g2fe  | e8 e=fed edcd e2de ^fga2  | 
w:  her  *  *  *  *  ya *  ra *  sın  |  dan  SAZ  | 
=b3a a3g g3f gffe e8  | e2a2 g2=f2 e3d eddc c8  | 
w:  Bir  *  tel  *  saç  *  o *  *  *  nun   |  kal *  *  *  dı  *  bü *  *  *  tün   | 
g6g=f f3e e3d d3c BABc  | B2c6 cdcB cBAB c3d efg2  | 
w:  ha *  *  tı *  ra *  sın  |  dan   SAZ  | 
g2fg e4 e2de c2BA A8  | A2B6 B3A AGGF G8  | \
w:  Bir  *  *  tel  saç  *  *  o *  *  nun   |  kal *  dı  *  bü *  *  *  tün   | 
e8 c4 A4 B3A G2BA  | 
w:  ha tı ra sın  | 
A4 g=fed c3B cBBA A8  | |


